images/icons/wordpress.svg

<svg fill="none" height="24" viewBox="0 0 24 24" width="24" xmlns="http://www.w3.org/2000/svg" xmlns:xlink="http://www.w3.org/1999/xlink"><clipPath id="a"><path d="m0 0h24v24h-24z"/></clipPath><g clip-path="url(#a)"><path d="m12 0c-6.61333 0-12 5.38133-12 12 0 6.6133 5.38667 12 12 12 6.6133 0 12-5.3867 12-12 0-6.61867-5.3867-12-12-12zm-10.78933 12c0-1.5627.336-3.05067.93333-4.38933l5.14667 14.10133c-3.6-1.7547-6.08-5.4453-6.08-9.712zm10.78933 10.7893c-1.0613 0-2.08-.1546-3.05067-.4426l3.23737-9.408 3.312 9.088c.0266.0533.048.1013.08.1493-1.1147.3947-2.32.6133-3.5787.6133zm1.488-15.8453c.6507-.032 1.232-.10133 1.232-.10133.5813-.06934.512-.92267-.0693-.89067 0 0-1.7494.13333-2.8747.13333-1.0613 0-2.84267-.13333-2.84267-.13333-.58133-.032-.65066.85867-.06933.89067 0 0 .54933.06933 1.13067.10133l1.68003 4.608-2.3627 7.0773-3.93067-11.6853c.65067-.032 1.232-.10133 1.232-.10133.58134-.06934.512-.92267-.06933-.89067 0 0-1.74933.13333-2.87467.13333-.20266 0-.44266-.00533-.69866-.016 1.93066-2.928 5.24266-4.864 9.01333-4.864 2.8053 0 5.3653 1.072 7.2853 2.832-.048-.00533-.0906-.01066-.1386-.01066-1.0614 0-1.808.92266-1.808 1.91466 0 .89067.512 1.64267 1.0613 2.528.4107.71467.8907 1.64267.8907 2.97597 0 .9227-.352 1.9947-.8214 3.488l-1.072 3.5947zm3.936 14.3787 3.296-9.5254c.6133-1.5413.8213-2.76797.8213-3.86663 0-.39467-.0266-.76267-.0746-1.10934.8426 1.54134 1.3226 3.30137 1.3226 5.17867 0 3.984-2.1546 7.456-5.3653 9.3227z" fill="#fff"/></g></svg>

<svg width="24" height="24" viewBox="0 0 24 24" fill="none" xmlns="http://www.w3.org/2000/svg">
<g clip-path="url(#clip0_1432_8821)">
<path d="M12 0C5.38667 0 0 5.38133 0 12C0 18.6133 5.38667 24 12 24C18.6133 24 24 18.6133 24 12C24 5.38133 18.6133 0 12 0ZM1.21067 12C1.21067 10.4373 1.54667 8.94933 2.144 7.61067L7.29067 21.712C3.69067 19.9573 1.21067 16.2667 1.21067 12ZM12 22.7893C10.9387 22.7893 9.92 22.6347 8.94933 22.3467L12.1867 12.9387L15.4987 22.0267C15.5253 22.08 15.5467 22.128 15.5787 22.176C14.464 22.5707 13.2587 22.7893 12 22.7893ZM13.488 6.944C14.1387 6.912 14.72 6.84267 14.72 6.84267C15.3013 6.77333 15.232 5.92 14.6507 5.952C14.6507 5.952 12.9013 6.08533 11.776 6.08533C10.7147 6.08533 8.93333 5.952 8.93333 5.952C8.352 5.92 8.28267 6.81067 8.864 6.84267C8.864 6.84267 9.41333 6.912 9.99467 6.944L11.6747 11.552L9.312 18.6293L5.38133 6.944C6.032 6.912 6.61333 6.84267 6.61333 6.84267C7.19467 6.77333 7.12533 5.92 6.544 5.952C6.544 5.952 4.79467 6.08533 3.66933 6.08533C3.46667 6.08533 3.22667 6.08 2.97067 6.06933C4.90133 3.14133 8.21333 1.20533 11.984 1.20533C14.7893 1.20533 17.3493 2.27733 19.2693 4.03733C19.2213 4.032 19.1787 4.02667 19.1307 4.02667C18.0693 4.02667 17.3227 4.94933 17.3227 5.94133C17.3227 6.832 17.8347 7.584 18.384 8.46933C18.7947 9.184 19.2747 10.112 19.2747 11.4453C19.2747 12.368 18.9227 13.44 18.4533 14.9333L17.3813 18.528L13.488 6.944ZM17.424 21.3227L20.72 11.7973C21.3333 10.256 21.5413 9.02933 21.5413 7.93067C21.5413 7.536 21.5147 7.168 21.4667 6.82133C22.3093 8.36267 22.7893 10.1227 22.7893 12C22.7893 15.984 20.6347 19.456 17.424 21.3227Z" fill="white"/>
</g>
<defs>
<clipPath id="clip0_1432_8821">
<rect width="24" height="24" fill="white"/>
</clipPath>
</defs>
</svg>
